X:1
T:The Bright Forevermore
T:William Augustine Ogden, 1865
T:The Bright Forevermore
T:Public Domain
T:Public Domain
C:William Augustine Ogden, 1865
Z:Public Domain
%%score ( 1 2 ) ( 3 4 )
L:1/8
M:4/4
K:C
V:1 treble 
V:2 treble 
V:3 bass 
V:4 bass 
V:1
 ([CE][DF]) | [EG]2 [EG]2 [EG]2 ([Ec][GB]) | [FA]2 [FA]2 [FA]2 [Ac]2 | G2 [Gc]2 [FB]2 (EG) | %4
w: 1.~There *|is a land, a *|sun- ny land, Whose|skies are ev- er *|
w: 2.~There *|is a clime, a *|peace- ful clime, Be-|yond life’s nar- row *|
w: 3.~There *|is a home, a *|glor- ious home, A|heav’n- ly man- sion *|
w: 4.~We *|long to leave these *|fad- ing scenes, That|glide so quick- ly *|
 [Gd]6 [Gd]2 | [Gd]2 [Gd]2 [Gd]2 [Gd]2 | [Ge]2 ([Ge][Fd]) [Ec]2 ([Ec][GB]) | %7
w: ev- ening|sha- dows ne- ver|fall, The * Sav- ior *|
w: ev- ery|storm is hushed to|rest, There * let our *|
w: those we|loved so fond- ly|here, Will * bid us *|
w: join the|shin- ing host a-|bove, Where * joy can *|
 [FA]2 [Fd]2 [Ec]2 [DB]2 | [Ec]6 ||"^Refrain" [Ec]>[Fd] | [Ge]4- [Ge][Fd] [Ec]>[FA] | %11
w: is its light. *||||
w: trea- sure be. If|the|cross we|meek- * ly bear, Then|
w: wel- come there. *||||
w: ne- ver die. *||||
 [EG]6 [DB]>[Ec] | [Fd]6 [Ec]>[Fd] | [Ge]6 [Ec]>[Fd] | [Ge]4- [Ge][Fd] [Ec]>[FA] | %15
w: ||||
w: the crown we|shall wear, When|we dwell a-|mong * the fair, In|
w: ||||
w: ||||
 [EG]6 [Ec]>[Ge] | [Fd]3 [Fd] [Ec]2 [DB]2 | [Ec]6 |] %18
w: |||
w: the bright for-|ev- er- more. *||
w: |||
w: |||
V:2
 x2 | x8 | x8 | G2 x2 c2 x2 | x8 | x8 | x8 | x8 | x6 || x2 | x8 | x8 | x8 | x8 | x8 | x8 | x8 | %17
w: |||bright, Where||||||||||||||
w: |||sea, Where||||||||||||||
w: |||fair; And||||||||||||||
w: |||by; And||||||||||||||
 x6 |] %18
w: |
w: |
w: |
w: |
V:3
 [C,C]2 | [C,C]2 [C,C]2 [C,C]2 [C,C]2 | [F,C]2 [F,C]2 [F,C]2 [F,C]2 | %3
w: ~|~ ~ ~ ~|~ ~ ~ ~|
 [E,C]2 [E,C]2 [D,G,]2 [C,C]2 | [G,B,]6 [G,B,]2 | [G,B,]2 [G,B,]2 [G,B,]2 [G,B,]2 | %6
w: ~ ~ ~ ~|~ ~|~ ~ ~ ~|
 [C,C]2 [C,C]2 [C,G,]2 [C,D]2 | [F,C]2 [F,A,]2 G,2 [G,,G,]2 | [C,G,]6 || z2 | %10
w: ~ ~ ~ ~|~ ~ ~ ~|If||
 [C,C]2 [C,C]2 [C,C]2 [C,C]2 | [C,C]2 [C,C]2 [C,C]2 z2 | [G,B,]2 [G,B,]2 [G,B,]2 (CB,) | %13
w: the cross we meek-|ly bear, We|a gold- en crown *|
 [C,C]2 [C,C]2 [C,C]2 z2 | [C,C]2 [C,C]2 [C,C]2 [C,C]2 | [C,C]2 [C,C]2 [C,C]2 [C,C]>[C,C] | %16
w: wear, When we|dwell a- mong the|fair, * * * *|
 [F,A,]3 [F,A,] G,2 [G,,G,]2 | [C,G,]6 |] %18
w: ||
V:4
 x2 | x8 | x8 | x8 | x8 | x8 | x8 | x4 G,2 x2 | x6 || x2 | x8 | x8 | x6 G,2 | x8 | x8 | x8 | %16
w: |||||||~|||||shall||||
 x4 G,2 x2 | x6 |] %18
w: ||

